client/public/game_modes/fireball/frame10.svg

<svg xmlns="http://www.w3.org/2000/svg" width="437" height="483" fill="none"><path fill="#FF5A00" d="M166.273 210.286v21.143h21.091v-21.143h42.181v21.143h21.091v-21.143h21.091v-21.143h21.091v42.286h21.091v21.142H335V316h-21.091v84.571h-21.091v42.286h-21.091V464H166.273v-21.143h-21.091v-42.286h-21.091V316H103v-84.571h21.091v21.142h21.091v-42.285h21.091ZM103 146.857v-21.143h21.091v21.143H103Z"/><path fill="#FF5A00" d="M187.364 210.286v-21.143h21.091v21.143h-21.091Zm63.272 0v-63.429h21.091v63.429h-21.091Zm21.091-105.715V83.429h21.091v21.142h-21.091Zm-42.182 21.143v-21.143h21.091v21.143h-21.091Zm84.364-42.285V62.286H335v21.143h-21.091Zm-126.545 21.142V83.429h21.091v21.142h-21.091Zm-21.091 21.143v-21.143h21.091v21.143h-21.091Zm0 84.572V168h21.091v42.286h-21.091Zm0 21.143v-21.143h21.091v21.143h-21.091Z"/><path fill="#FF5A00" d="M229.545 210.286V168h21.091v42.286h-21.091ZM145.182 41.143V20h21.091v21.143h-21.091ZM103 210.286V168h21.091v21.143h21.091v42.286h-21.091v-21.143H103Z"/><path fill="#FF5A00" d="M103 210.286V168h21.091v21.143h21.091v42.286h-21.091v-21.143H103Zm84.364-21.143v-63.429h21.091v21.143h21.09v63.429h-21.09v-21.143h-21.091Zm126.545 42.286V168H335v63.429h-21.091Z"/><path fill="#FF5A00" d="M145.182 189.143v-63.429h21.091v63.429h-21.091Zm168.727-42.286v-42.286H335v42.286h-21.091ZM271.727 168v-42.286h21.091V168h-21.091Zm-126.545-63.429V62.286h21.091v42.285h-21.091Z"/><path fill="#FF7A00" d="M166.273 231.429h-21.091v21.142h-21.091V316h21.091v-21.143h21.091v-63.428Z"/><path fill="#FF9D00" d="M271.727 294.857v-84.571h-63.272v63.428h-21.091v-21.143h-21.091v42.286h-42.182v42.286h21.091v63.428h21.091v21.143h21.091v-42.285h-21.091v-42.286h42.182v-42.286h63.272Z"/><path fill="#FFD600" d="M229.545 442.857h-42.181v-63.428h-21.091v-42.286h42.182v-42.286h63.272v-21.143h21.091V316h-21.091v21.143h21.091v21.143h-21.091v42.285h-42.182v42.286Z"/><path fill="#FF9D00" d="M313.909 273.714v84.572h-21.091v42.285h-42.182v42.286h-21.091v-63.428h42.182v-21.143h21.091v-21.143h-21.091V316h21.091v-42.286h21.091Z"/><path fill="#FF7A00" d="M124.091 379.429v-42.286h21.091v42.286h-21.091Zm63.273-105.715v-21.143h-21.091v-21.142h21.091v-42.286h21.091v42.286h21.09v21.142h-21.09v21.143h-21.091Zm126.545 0h-42.182v-42.285h-21.091v-42.286h21.091v21.143h21.091v42.285h21.091v21.143Zm-42.182 105.715h21.091v42.285h-21.091v21.143h-84.363v-21.143h63.272v-21.143h21.091v-21.142Z"/><path fill="#FFF1CD" d="M208.455 379.429v-42.286h21.09v-42.286h21.091v84.572h-42.181Z"/><path fill="#FFBF00" d="M229.545 284.286V316h-21.09v-63.429h21.09v31.715Z"/><path fill="#FFBF00" d="M208.455 316v21.143h-21.091v-42.286h21.091V316Zm-21.091 21.143v21.143h-21.091V316h21.091v21.143Zm84.363-63.429v21.143h-21.091v-42.286h21.091v21.143Z"/></svg>

<svg width="437" height="483" viewBox="0 0 437 483" fill="none" xmlns="http://www.w3.org/2000/svg">
<path d="M166.273 210.286V231.429H187.364V210.286H208.455H229.545V231.429H250.636V210.286H271.727V189.143H292.818V231.429H313.909V252.571H335V316H313.909V400.571H292.818V442.857H271.727V464H187.364H166.273V442.857H145.182V400.571H124.091V316H103V294.857V231.429H124.091V252.571H145.182V210.286H166.273Z" fill="#FF5A00"/>
<path d="M103 146.857V125.714H124.091V146.857H103Z" fill="#FF5A00"/>
<path d="M187.364 210.286V189.143H208.455V210.286H187.364Z" fill="#FF5A00"/>
<path d="M250.636 210.286V146.857H271.727V210.286H250.636Z" fill="#FF5A00"/>
<path d="M271.727 104.571V83.4286H292.818V104.571H271.727Z" fill="#FF5A00"/>
<path d="M229.545 125.714V104.571H250.636V125.714H229.545Z" fill="#FF5A00"/>
<path d="M313.909 83.4286V62.2857H335V83.4286H313.909Z" fill="#FF5A00"/>
<path d="M187.364 104.571V83.4286H208.455V104.571H187.364Z" fill="#FF5A00"/>
<path d="M166.273 125.714V104.571H187.364V125.714H166.273Z" fill="#FF5A00"/>
<path d="M166.273 210.286V168H187.364V210.286H166.273Z" fill="#FF5A00"/>
<path d="M166.273 231.429V210.286H187.364V231.429H166.273Z" fill="#FF5A00"/>
<path d="M229.545 210.286V168H250.636V210.286H229.545Z" fill="#FF5A00"/>
<path d="M145.182 41.1429V20H166.273V41.1429H145.182Z" fill="#FF5A00"/>
<path d="M103 210.286V168H124.091V189.143H145.182V231.429H124.091V210.286H103Z" fill="#FF5A00"/>
<path d="M103 210.286V168H124.091V189.143H145.182V231.429H124.091V210.286H103Z" fill="#FF5A00"/>
<path d="M187.364 189.143V125.714H208.455V146.857H229.545V168V210.286H208.455V189.143H187.364Z" fill="#FF5A00"/>
<path d="M313.909 231.429V168H335V231.429H313.909Z" fill="#FF5A00"/>
<path d="M145.182 189.143V125.714H166.273V189.143H145.182Z" fill="#FF5A00"/>
<path d="M313.909 146.857V104.571H335V146.857H313.909Z" fill="#FF5A00"/>
<path d="M271.727 168V125.714H292.818V168H271.727Z" fill="#FF5A00"/>
<path d="M145.182 104.571V62.2857H166.273V104.571H145.182Z" fill="#FF5A00"/>
<path d="M166.273 231.429H145.182V252.571H124.091V294.857V316H145.182V294.857H166.273V231.429Z" fill="#FF7A00"/>
<path d="M271.727 294.857V210.286H250.636H229.545H208.455V273.714H187.364V252.571H166.273V273.714V294.857H145.182H124.091V337.143H145.182V400.571H166.273V421.714H187.364V379.429H166.273V358.286V337.143H187.364H208.455V316V294.857H271.727Z" fill="#FF9D00"/>
<path d="M229.545 442.857H187.364V379.429H166.273V337.143H208.455V294.857H271.727V273.714H292.818V316H271.727V337.143H292.818V358.286H271.727V400.571H229.545V442.857Z" fill="#FFD600"/>
<path d="M313.909 273.714V358.286H292.818V400.571H250.636V421.714V442.857H229.545V421.714V379.429H271.727V358.286H292.818V337.143H271.727V316H292.818V273.714H313.909Z" fill="#FF9D00"/>
<path d="M124.091 379.429V337.143H145.182V379.429H124.091Z" fill="#FF7A00"/>
<path d="M187.364 273.714V252.571H166.273V231.429H187.364V189.143H208.455V231.429H229.545V252.571H208.455V273.714H187.364Z" fill="#FF7A00"/>
<path d="M313.909 273.714H292.818H271.727V231.429H250.636V189.143H271.727V210.286H292.818V252.571H313.909V273.714Z" fill="#FF7A00"/>
<path d="M271.727 379.429H292.818V421.714H271.727V442.857H187.364V421.714H250.636V400.571H271.727V379.429Z" fill="#FF7A00"/>
<path d="M208.455 379.429V337.143H229.545V294.857H250.636V379.429H208.455Z" fill="#FFF1CD"/>
<path d="M229.545 284.286V316H208.455V252.571H229.545V284.286Z" fill="#FFBF00"/>
<path d="M208.455 316V337.143H187.364V294.857H208.455V316Z" fill="#FFBF00"/>
<path d="M187.364 337.143V358.286H166.273V316H187.364V337.143Z" fill="#FFBF00"/>
<path d="M271.727 273.714V294.857H250.636V252.571H271.727V273.714Z" fill="#FFBF00"/>
</svg>
